libs/ui/packages/crypto-icons/src/svg/ETP.svg

<svg width="24" height="24" viewBox="0 0 24 24" fill="none">
<path fill-rule="evenodd" clip-rule="evenodd" d="M13.56 9.43051C13.5577 10.1003 13.5532 10.7693 13.5525 11.4383C13.5517 12.5513 13.5502 13.665 13.5555 14.778C13.5555 14.913 13.518 14.9933 13.4002 15.0645C12.9427 15.3398 12.4927 15.627 12.0097 15.9293V15.6855C12.0097 13.9628 12.0075 12.2393 12.0127 10.5165C12.0135 10.3733 11.9752 10.2923 11.8462 10.2225C11.445 10.005 11.0527 9.77101 10.6567 9.54451C10.6132 9.51976 10.5667 9.49951 10.5 9.46651V9.70276C10.5 11.247 10.497 12.7913 10.5045 14.3348C10.5045 14.49 10.455 14.571 10.3245 14.6438C9.93074 14.8613 9.54599 15.0938 9.15674 15.3203C9.10199 15.3518 9.04424 15.3795 8.95724 15.4253V15.1853C8.95724 13.6343 8.95349 12.0833 8.96249 10.533C8.96324 10.353 8.90249 10.263 8.75249 10.1805C8.31449 9.93601 7.88474 9.67651 7.42949 9.41026C7.93349 9.12001 8.41799 8.83801 8.90774 8.56726C8.95274 8.54251 9.04649 8.57476 9.10274 8.60701C9.52949 8.84701 9.95474 9.08926 10.3755 9.33901C10.4775 9.39901 10.5517 9.40651 10.6582 9.34126C11.0467 9.10351 11.4487 8.88526 11.8357 8.64376C11.9752 8.55676 12.0757 8.57101 12.2085 8.65051C12.6562 8.91826 13.1115 9.17551 13.5645 9.43576L13.56 9.43051ZM13.5645 9.43576C13.5975 9.40126 13.626 9.35701 13.6657 9.33376C14.088 9.08776 14.5102 8.84026 14.94 8.60776C14.9816 8.5896 15.0265 8.58041 15.0719 8.5808C15.1172 8.58119 15.162 8.59114 15.2032 8.61001C15.6397 8.84476 16.0702 9.09076 16.4955 9.34426C16.554 9.37876 16.6125 9.47026 16.6125 9.53551C16.6192 11.1578 16.6185 12.7808 16.6155 14.403C16.6155 14.4555 16.602 14.538 16.5667 14.559C16.0807 14.8485 15.5895 15.1298 15.0682 15.4313V15.1845C15.0682 13.6215 15.0667 12.0585 15.0712 10.4963C15.0712 10.3635 15.0397 10.2833 14.9152 10.215C14.4592 9.96151 14.0107 9.69301 13.56 9.43051L13.5645 9.43576ZM5.20424 14.091C5.06368 14.0927 4.92418 14.0666 4.79375 14.0141C4.66332 13.9617 4.54454 13.884 4.44425 13.7856C4.34395 13.6871 4.26411 13.5697 4.20932 13.4403C4.15453 13.3108 4.12587 13.1718 4.12499 13.0313C4.1236 12.8906 4.15013 12.751 4.20304 12.6206C4.25595 12.4902 4.33419 12.3716 4.43323 12.2717C4.53227 12.1717 4.65015 12.0924 4.78005 12.0383C4.90995 11.9842 5.04928 11.9564 5.18999 11.9565C5.33068 11.9544 5.47039 11.9803 5.601 12.0326C5.73162 12.085 5.85054 12.1627 5.95087 12.2614C6.0512 12.36 6.13094 12.4776 6.18546 12.6073C6.23999 12.737 6.26821 12.8763 6.26849 13.017C6.27008 13.1577 6.24371 13.2972 6.19091 13.4276C6.13811 13.558 6.05994 13.6766 5.96092 13.7765C5.86191 13.8764 5.74403 13.9557 5.61413 14.0097C5.48424 14.0637 5.34491 14.0913 5.20424 14.091ZM6.64049 17.3063C6.37318 17.3085 6.11587 17.2048 5.92475 17.0179C5.73363 16.831 5.62425 16.576 5.62049 16.3088C5.61984 16.0414 5.72413 15.7844 5.91094 15.5931C6.09775 15.4018 6.35217 15.2915 6.61949 15.2858C7.16324 15.2738 7.63349 15.7358 7.63949 16.2885C7.64149 16.5558 7.53748 16.813 7.35023 17.0037C7.16299 17.1945 6.90777 17.3033 6.64049 17.3063ZM5.82524 8.54926C6.36524 8.55076 6.79874 8.98426 6.79874 9.52051C6.79874 10.0658 6.35474 10.5045 5.80874 10.4985C5.68106 10.4976 5.55483 10.4714 5.43738 10.4213C5.31994 10.3712 5.21363 10.2982 5.12465 10.2067C5.03566 10.1151 4.96578 10.0067 4.91905 9.88792C4.87233 9.76909 4.8497 9.64216 4.85249 9.51451C4.85127 9.38677 4.87565 9.26009 4.9242 9.14194C4.97275 9.02379 5.04447 8.91656 5.13515 8.82658C5.22582 8.73661 5.3336 8.66571 5.45213 8.61808C5.57065 8.57045 5.69752 8.54705 5.82524 8.54926ZM18.9667 12.2288C18.7251 12.2288 18.4933 12.1327 18.3224 11.9619C18.1515 11.791 18.0555 11.5592 18.0555 11.3175C18.0555 11.0758 18.1515 10.844 18.3224 10.6732C18.4933 10.5023 18.7251 10.4063 18.9667 10.4063C19.2084 10.4063 19.4402 10.5023 19.6111 10.6732C19.782 10.844 19.878 11.0758 19.878 11.3175C19.878 11.5592 19.782 11.791 19.6111 11.9619C19.4402 12.1327 19.2084 12.2288 18.9667 12.2288ZM7.15649 6.46276C7.15487 6.35344 7.1752 6.24491 7.21627 6.14359C7.25734 6.04227 7.31831 5.95022 7.39558 5.87288C7.47285 5.79554 7.56485 5.73448 7.66613 5.69333C7.76741 5.65217 7.87592 5.63174 7.98524 5.63326C8.09463 5.63315 8.20295 5.65478 8.30392 5.69689C8.40488 5.73899 8.49647 5.80074 8.57336 5.87855C8.65026 5.95635 8.71093 6.04866 8.75185 6.15011C8.79277 6.25156 8.81313 6.36012 8.81174 6.46951C8.81214 6.5788 8.79086 6.68709 8.74912 6.78811C8.70739 6.88913 8.64604 6.98086 8.56861 7.05801C8.49119 7.13515 8.39923 7.19617 8.29807 7.23754C8.1969 7.27891 8.08853 7.2998 7.97924 7.29901C7.8699 7.29953 7.76157 7.27816 7.66063 7.23615C7.55969 7.19414 7.46817 7.13234 7.39149 7.05441C7.31481 6.97647 7.25452 6.88396 7.21415 6.78235C7.17379 6.68074 7.15419 6.57207 7.15649 6.46276ZM18.477 15.6825C18.3677 15.6848 18.2591 15.6652 18.1576 15.6247C18.0561 15.5842 17.9638 15.5237 17.8861 15.4468C17.8084 15.3699 17.747 15.2782 17.7055 15.1771C17.664 15.076 17.6433 14.9675 17.6445 14.8583C17.6429 14.749 17.6629 14.6405 17.7034 14.5389C17.7438 14.4374 17.8039 14.3448 17.8802 14.2666C17.9565 14.1883 18.0475 14.1259 18.148 14.0829C18.2485 14.0399 18.3565 14.0172 18.4657 14.016C18.575 14.0157 18.6832 14.037 18.7843 14.0785C18.8853 14.1201 18.9771 14.1812 19.0545 14.2583C19.1319 14.3355 19.1934 14.4271 19.2353 14.528C19.2772 14.6288 19.2989 14.737 19.299 14.8463C19.3017 14.9556 19.2824 15.0644 19.2422 15.1662C19.2021 15.2679 19.1419 15.3605 19.0652 15.4385C18.9885 15.5166 18.8969 15.5784 18.7959 15.6203C18.6948 15.6622 18.5864 15.6833 18.477 15.6825ZM11.9895 5.14126C11.9893 5.22383 11.9724 5.3055 11.9398 5.38138C11.9073 5.45726 11.8597 5.52579 11.8001 5.58287C11.7404 5.63994 11.6698 5.68438 11.5926 5.71353C11.5153 5.74268 11.433 5.75594 11.3505 5.75251C11.2679 5.751 11.1865 5.73293 11.111 5.69939C11.0356 5.66584 10.9676 5.61749 10.9112 5.55721C10.8548 5.49693 10.811 5.42593 10.7825 5.34843C10.754 5.27093 10.7413 5.18849 10.7452 5.10601C10.7505 4.94274 10.8195 4.78801 10.9373 4.67491C11.0552 4.56181 11.2126 4.4993 11.376 4.50076C11.4586 4.50151 11.5403 4.51879 11.6162 4.55159C11.692 4.58438 11.7606 4.63202 11.8177 4.69171C11.8749 4.7514 11.9195 4.82192 11.949 4.89912C11.9785 4.97633 11.9923 5.05866 11.9895 5.14126ZM16.3177 18.2678C16.2366 18.2682 16.1561 18.2524 16.0811 18.2213C16.0061 18.1902 15.938 18.1445 15.8809 18.0868C15.8238 18.0292 15.7787 17.9607 15.7484 17.8853C15.718 17.81 15.703 17.7294 15.7042 17.6483C15.7038 17.5653 15.7201 17.4831 15.7521 17.4065C15.7842 17.33 15.8313 17.2607 15.8908 17.2028C15.9502 17.1449 16.0207 17.0996 16.0981 17.0695C16.1754 17.0395 16.258 17.0254 16.341 17.028C16.686 17.0325 16.956 17.3055 16.9545 17.6505C16.9545 18.0045 16.6785 18.2708 16.3177 18.2678ZM13.1077 19.5C13.0298 19.5017 12.9524 19.4875 12.8802 19.4583C12.8079 19.4291 12.7424 19.3856 12.6875 19.3304C12.6326 19.2751 12.5894 19.2092 12.5607 19.1368C12.532 19.0644 12.5183 18.9869 12.5205 18.909C12.5202 18.831 12.5354 18.7537 12.5654 18.6816C12.5953 18.6095 12.6394 18.5442 12.6949 18.4893C12.7504 18.4345 12.8163 18.3913 12.8888 18.3623C12.9612 18.3332 13.0387 18.319 13.1167 18.3203C13.2742 18.322 13.4246 18.3856 13.5356 18.4973C13.6466 18.609 13.7092 18.7598 13.71 18.9173C13.7098 18.9954 13.694 19.0727 13.6634 19.1446C13.6328 19.2165 13.5882 19.2816 13.532 19.3359C13.4759 19.3902 13.4094 19.4328 13.3365 19.4609C13.2636 19.4891 13.1858 19.5024 13.1077 19.5ZM15.0787 6.20776C14.9375 6.20696 14.8024 6.1501 14.7031 6.04967C14.6038 5.94924 14.5484 5.81349 14.5492 5.67226C14.55 5.53103 14.6069 5.3959 14.7073 5.2966C14.8078 5.1973 14.9435 5.14196 15.0847 5.14276C15.3727 5.14426 15.6172 5.39101 15.6165 5.67826C15.6128 5.81895 15.5547 5.95274 15.4544 6.05149C15.3541 6.15024 15.2195 6.20625 15.0787 6.20776ZM10.1752 18.4193C10.1751 18.4806 10.1626 18.5412 10.1386 18.5976C10.1146 18.654 10.0796 18.7051 10.0355 18.7477C9.99149 18.7904 9.93935 18.8237 9.88219 18.8459C9.82503 18.8681 9.76402 18.8786 9.70274 18.8768C9.64137 18.8767 9.58065 18.8642 9.52423 18.8401C9.46782 18.816 9.41687 18.7806 9.37447 18.7363C9.33207 18.6919 9.2991 18.6394 9.27753 18.582C9.25596 18.5245 9.24626 18.4633 9.24899 18.402C9.24977 18.3409 9.2626 18.2805 9.28674 18.2243C9.31088 18.1682 9.34586 18.1173 9.38968 18.0747C9.4335 18.032 9.48529 17.9985 9.5421 17.9759C9.59891 17.9533 9.65961 17.9421 9.72074 17.943C9.78187 17.9444 9.84214 17.9578 9.89808 17.9825C9.95403 18.0071 10.0046 18.0426 10.0468 18.0869C10.089 18.1311 10.1221 18.1832 10.1441 18.2403C10.1662 18.2973 10.1767 18.3581 10.1752 18.4193ZM18.1725 7.93501C18.1747 7.9879 18.1664 8.04071 18.1479 8.09035C18.1295 8.13999 18.1014 8.18547 18.0653 8.22414C18.0291 8.26281 17.9856 8.2939 17.9373 8.3156C17.889 8.33729 17.8369 8.34916 17.784 8.35051C17.6774 8.35232 17.5744 8.31197 17.4974 8.23822C17.4205 8.16448 17.3757 8.06332 17.373 7.95676C17.3709 7.90391 17.3794 7.85117 17.3979 7.80165C17.4165 7.75213 17.4448 7.70682 17.4811 7.66838C17.5175 7.62995 17.5611 7.59917 17.6095 7.57785C17.6579 7.55654 17.7101 7.54511 17.763 7.54426C17.9872 7.53676 18.168 7.71001 18.1725 7.93576V7.93501Z" fill="white"/>
<path fill-rule="evenodd" clip-rule="evenodd" d="M13.5585 9.43C13.5563 10.0998 13.5518 10.7688 13.551 11.4378C13.5503 12.5508 13.5488 13.6645 13.554 14.7775C13.554 14.9125 13.5165 14.9928 13.3988 15.064C12.9413 15.3393 12.4913 15.6265 12.0083 15.9288V15.685C12.0083 13.9623 12.006 12.2388 12.0113 10.516C12.012 10.3728 11.9738 10.2918 11.8448 10.222C11.4435 10.0045 11.0513 9.7705 10.6553 9.544C10.6118 9.51925 10.5653 9.499 10.4985 9.466V9.70225C10.4985 11.2465 10.4955 12.7908 10.503 14.3343C10.503 14.4895 10.4535 14.5705 10.323 14.6433C9.92927 14.8608 9.54452 15.0933 9.15527 15.3198C9.10052 15.3513 9.04277 15.379 8.95577 15.4248V15.1848C8.95577 13.6338 8.95202 12.0828 8.96102 10.5325C8.96177 10.3525 8.90102 10.2625 8.75102 10.18C8.31302 9.9355 7.88328 9.676 7.42803 9.40975C7.93203 9.1195 8.41652 8.8375 8.90627 8.56675C8.95127 8.542 9.04502 8.57425 9.10127 8.6065C9.52802 8.8465 9.95327 9.08875 10.374 9.3385C10.476 9.3985 10.5503 9.406 10.6568 9.34075C11.0453 9.103 11.4473 8.88475 11.8343 8.64325C11.9738 8.55625 12.0743 8.5705 12.207 8.65C12.6548 8.91775 13.11 9.175 13.563 9.43525L13.5585 9.43ZM13.563 9.43525C13.596 9.40075 13.6245 9.3565 13.6643 9.33325C14.0865 9.08725 14.5088 8.83975 14.9385 8.60725C14.9801 8.58909 15.025 8.57991 15.0704 8.58029C15.1157 8.58068 15.1605 8.59063 15.2018 8.6095C15.6383 8.84425 16.0688 9.09025 16.494 9.34375C16.5525 9.37825 16.611 9.46975 16.611 9.535C16.6178 11.1573 16.617 12.7803 16.614 14.4025C16.614 14.455 16.6005 14.5375 16.5653 14.5585C16.0793 14.848 15.588 15.1293 15.0668 15.4308V15.184C15.0668 13.621 15.0653 12.058 15.0698 10.4958C15.0698 10.363 15.0383 10.2828 14.9138 10.2145C14.4578 9.961 14.0093 9.6925 13.5585 9.43L13.563 9.43525ZM5.20278 14.0905C5.06222 14.0922 4.92271 14.0661 4.79229 14.0136C4.66186 13.9612 4.54308 13.8835 4.44278 13.7851C4.34248 13.6866 4.26264 13.5692 4.20785 13.4398C4.15306 13.3103 4.12441 13.1713 4.12353 13.0308C4.12214 12.89 4.14867 12.7505 4.20157 12.6201C4.25448 12.4897 4.33272 12.3711 4.43176 12.2712C4.53081 12.1712 4.64869 12.0919 4.77858 12.0378C4.90848 11.9837 5.04782 11.9559 5.18853 11.956C5.32922 11.9539 5.46892 11.9798 5.59954 12.0321C5.73015 12.0845 5.84908 12.1622 5.94941 12.2609C6.04973 12.3595 6.12947 12.4771 6.184 12.6068C6.23852 12.7365 6.26674 12.8758 6.26703 13.0165C6.26862 13.1572 6.24225 13.2967 6.18945 13.4271C6.13665 13.5575 6.05847 13.6761 5.95946 13.776C5.86044 13.8759 5.74257 13.9552 5.61267 14.0092C5.48277 14.0632 5.34344 14.0908 5.20278 14.0905ZM6.63903 17.3058C6.37172 17.308 6.1144 17.2043 5.92328 17.0174C5.73217 16.8305 5.62278 16.5755 5.61903 16.3083C5.61838 16.0409 5.72267 15.7839 5.90948 15.5926C6.09629 15.4013 6.3507 15.2909 6.61803 15.2853C7.16178 15.2733 7.63203 15.7353 7.63803 16.288C7.64003 16.5553 7.53601 16.8125 7.34877 17.0032C7.16152 17.194 6.90631 17.3028 6.63903 17.3058ZM5.82378 8.54875C6.36378 8.55025 6.79728 8.98375 6.79728 9.52C6.79728 10.0653 6.35328 10.504 5.80728 10.498C5.67959 10.4971 5.55336 10.4709 5.43592 10.4208C5.31848 10.3707 5.21217 10.2977 5.12318 10.2062C5.0342 10.1146 4.96431 10.0062 4.91759 9.88742C4.87086 9.76859 4.84824 9.64166 4.85103 9.514C4.8498 9.38627 4.87419 9.25959 4.92273 9.14144C4.97128 9.02328 5.04301 8.91605 5.13368 8.82608C5.22436 8.7361 5.33214 8.66521 5.45066 8.61758C5.56919 8.56994 5.69606 8.54654 5.82378 8.54875ZM18.9653 12.2283C18.7236 12.2283 18.4918 12.1322 18.3209 11.9614C18.15 11.7905 18.054 11.5587 18.054 11.317C18.054 11.0753 18.15 10.8435 18.3209 10.6727C18.4918 10.5018 18.7236 10.4058 18.9653 10.4058C19.207 10.4058 19.4387 10.5018 19.6096 10.6727C19.7805 10.8435 19.8765 11.0753 19.8765 11.317C19.8765 11.5587 19.7805 11.7905 19.6096 11.9614C19.4387 12.1322 19.207 12.2283 18.9653 12.2283ZM7.15503 6.46225C7.15341 6.35294 7.17374 6.24441 7.2148 6.14309C7.25587 6.04177 7.31684 5.94972 7.39411 5.87238C7.47139 5.79504 7.56338 5.73398 7.66467 5.69282C7.76595 5.65166 7.87446 5.63124 7.98378 5.63275C8.09317 5.63265 8.20149 5.65427 8.30245 5.69638C8.40341 5.73849 8.495 5.80024 8.5719 5.87804C8.6488 5.95585 8.70947 6.04815 8.75039 6.1496C8.79131 6.25105 8.81167 6.35962 8.81027 6.469C8.81067 6.5783 8.78939 6.68659 8.74766 6.78761C8.70593 6.88862 8.64457 6.98036 8.56715 7.0575C8.48972 7.13465 8.39777 7.19567 8.2966 7.23704C8.19544 7.27841 8.08707 7.2993 7.97778 7.2985C7.86844 7.29903 7.76011 7.27766 7.65916 7.23565C7.55822 7.19364 7.46671 7.13184 7.39003 7.0539C7.31335 6.97596 7.25305 6.88346 7.21269 6.78185C7.17233 6.68023 7.15272 6.57156 7.15503 6.46225ZM18.4755 15.682C18.3663 15.6843 18.2576 15.6646 18.1561 15.6242C18.0546 15.5837 17.9623 15.5232 17.8846 15.4463C17.807 15.3694 17.7456 15.2776 17.7041 15.1765C17.6625 15.0754 17.6418 14.967 17.643 14.8578C17.6414 14.7485 17.6614 14.6399 17.7019 14.5384C17.7423 14.4369 17.8024 14.3443 17.8787 14.2661C17.955 14.1878 18.046 14.1254 18.1465 14.0824C18.247 14.0394 18.355 14.0167 18.4643 14.0155C18.5735 14.0152 18.6818 14.0365 18.7828 14.078C18.8838 14.1196 18.9757 14.1807 19.0531 14.2578C19.1305 14.335 19.1919 14.4266 19.2338 14.5275C19.2758 14.6283 19.2974 14.7365 19.2975 14.8458C19.3002 14.9551 19.2809 15.0639 19.2408 15.1656C19.2006 15.2674 19.1404 15.36 19.0637 15.438C18.987 15.5161 18.8954 15.5779 18.7944 15.6198C18.6933 15.6617 18.5849 15.6828 18.4755 15.682ZM11.988 5.14075C11.9878 5.22332 11.9709 5.30499 11.9383 5.38088C11.9058 5.45676 11.8583 5.52529 11.7986 5.58236C11.7389 5.63944 11.6684 5.68388 11.5911 5.71303C11.5139 5.74218 11.4315 5.75544 11.349 5.752C11.2665 5.75049 11.185 5.73243 11.1096 5.69888C11.0341 5.66534 10.9662 5.61699 10.9097 5.55671C10.8533 5.49642 10.8095 5.42543 10.781 5.34793C10.7525 5.27042 10.7398 5.18799 10.7438 5.1055C10.7491 4.94223 10.818 4.78751 10.9359 4.6744C11.0537 4.5613 11.2112 4.4988 11.3745 4.50025C11.4572 4.50101 11.5388 4.51829 11.6147 4.55108C11.6906 4.58388 11.7591 4.63152 11.8163 4.69121C11.8734 4.75089 11.9181 4.82141 11.9476 4.89862C11.9771 4.97583 11.9908 5.05815 11.988 5.14075ZM16.3163 18.2673C16.2351 18.2677 16.1546 18.2519 16.0796 18.2208C16.0046 18.1897 15.9366 18.144 15.8794 18.0863C15.8223 18.0287 15.7772 17.9602 15.7469 17.8848C15.7166 17.8095 15.7016 17.7289 15.7028 17.6478C15.7023 17.5648 15.7186 17.4826 15.7507 17.406C15.7827 17.3295 15.8299 17.2602 15.8893 17.2023C15.9488 17.1444 16.0193 17.0991 16.0966 17.069C16.174 17.039 16.2566 17.0249 16.3395 17.0275C16.6845 17.032 16.9545 17.305 16.953 17.65C16.953 18.004 16.677 18.2703 16.3163 18.2673ZM13.1063 19.4995C13.0284 19.5012 12.951 19.487 12.8787 19.4578C12.8065 19.4286 12.7409 19.3851 12.686 19.3298C12.6311 19.2746 12.588 19.2087 12.5593 19.1363C12.5306 19.0639 12.5169 18.9864 12.519 18.9085C12.5187 18.8305 12.534 18.7532 12.5639 18.6811C12.5939 18.609 12.6379 18.5437 12.6934 18.4888C12.749 18.434 12.8149 18.3908 12.8873 18.3618C12.9597 18.3327 13.0372 18.3185 13.1153 18.3198C13.2727 18.3215 13.4231 18.3851 13.5341 18.4968C13.6451 18.6085 13.7077 18.7593 13.7085 18.9168C13.7084 18.9949 13.6925 19.0722 13.662 19.1441C13.6314 19.216 13.5867 19.2811 13.5305 19.3354C13.4744 19.3897 13.4079 19.4323 13.335 19.4604C13.2622 19.4886 13.1844 19.5019 13.1063 19.4995ZM15.0773 6.20725C14.936 6.20646 14.8009 6.14959 14.7016 6.04917C14.6023 5.94874 14.547 5.81298 14.5478 5.67175C14.5486 5.53053 14.6054 5.3954 14.7059 5.2961C14.8063 5.1968 14.942 5.14146 15.0833 5.14225C15.3713 5.14375 15.6158 5.3905 15.615 5.67775C15.6113 5.81845 15.5533 5.95224 15.453 6.05098C15.3527 6.14973 15.218 6.20575 15.0773 6.20725ZM10.1738 18.4188C10.1736 18.4801 10.1611 18.5407 10.1372 18.5971C10.1132 18.6535 10.0781 18.7046 10.0341 18.7472C9.99002 18.7898 9.93788 18.8232 9.88073 18.8454C9.82357 18.8676 9.76255 18.8781 9.70127 18.8763C9.63991 18.8762 9.57919 18.8637 9.52277 18.8396C9.46635 18.8155 9.41541 18.7801 9.37301 18.7358C9.33061 18.6914 9.29763 18.6389 9.27607 18.5815C9.2545 18.524 9.24479 18.4628 9.24752 18.4015C9.24831 18.3404 9.26114 18.28 9.28528 18.2238C9.30942 18.1677 9.3444 18.1168 9.38822 18.0742C9.43203 18.0315 9.48383 17.998 9.54063 17.9754C9.59744 17.9528 9.65815 17.9416 9.71927 17.9425C9.78041 17.9439 9.84067 17.9573 9.89662 17.982C9.95256 18.0066 10.0031 18.0421 10.0453 18.0864C10.0875 18.1306 10.1206 18.1827 10.1426 18.2398C10.1647 18.2968 10.1753 18.3576 10.1738 18.4188ZM18.171 7.9345C18.1732 7.9874 18.1649 8.04021 18.1465 8.08985C18.1281 8.13949 18.1 8.18497 18.0638 8.22364C18.0277 8.26231 17.9842 8.2934 17.9359 8.3151C17.8876 8.33679 17.8354 8.34866 17.7825 8.35C17.6759 8.35182 17.573 8.31146 17.496 8.23772C17.419 8.16398 17.3743 8.06282 17.3715 7.95625C17.3694 7.9034 17.3779 7.85067 17.3965 7.80115C17.415 7.75162 17.4433 7.70631 17.4797 7.66788C17.516 7.62945 17.5597 7.59867 17.6081 7.57735C17.6565 7.55603 17.7086 7.54461 17.7615 7.54375C17.9858 7.53625 18.1665 7.7095 18.171 7.93525V7.9345Z" fill="#00A5FF"/>
</svg>

<svg width="24" height="24" viewBox="0 0 24 24" fill="none"><path fill="#fff" fill-rule="evenodd" d="m13.56 9.43-.008 2.008c0 1.113-.002 2.227.004 3.34 0 .135-.038.215-.156.287-.457.275-.907.562-1.39.864v-.244c0-1.722-.002-3.446.003-5.168 0-.144-.038-.225-.167-.294-.401-.218-.793-.452-1.19-.678-.043-.025-.09-.045-.156-.078v.236c0 1.544-.003 3.088.005 4.632 0 .155-.05.236-.18.309-.394.217-.779.45-1.168.676-.055.032-.113.06-.2.105v-.24c0-1.55-.004-3.102.005-4.652.001-.18-.06-.27-.21-.352-.438-.245-.867-.504-1.323-.77.504-.291.989-.573 1.479-.844.045-.024.138.008.195.04q.64.358 1.273.732c.101.06.176.068.282.002.389-.237.79-.456 1.178-.697.14-.087.24-.073.373.007.447.267.902.525 1.356.785zm.005.006c.033-.035.061-.079.1-.102.423-.246.845-.494 1.275-.726a.32.32 0 0 1 .263.002q.655.353 1.293.734c.058.035.117.126.117.192q.008 2.433.003 4.867c0 .053-.014.135-.05.156-.485.29-.976.57-1.498.872v-.246q-.001-2.345.003-4.689c0-.133-.031-.213-.156-.281-.456-.253-.904-.522-1.355-.784zm-8.36 4.655a1.065 1.065 0 0 1-1.08-1.06 1.064 1.064 0 0 1 1.065-1.075 1.063 1.063 0 0 1 1.078 1.061 1.06 1.06 0 0 1-1.064 1.074m1.435 3.215a1.01 1.01 0 0 1-1.02-.997 1.02 1.02 0 0 1 1-1.023c.543-.012 1.013.45 1.02 1.002a1.01 1.01 0 0 1-1 1.018M5.825 8.55c.54.002.974.435.974.972a.977.977 0 0 1-1.674.686.96.96 0 0 1-.273-.692.956.956 0 0 1 .973-.966m13.142 3.68a.912.912 0 1 1 0-1.824.912.912 0 0 1 0 1.824M7.157 6.463a.817.817 0 0 1 .828-.83.826.826 0 0 1 .827.837.826.826 0 0 1-.833.829.82.82 0 0 1-.823-.836m11.32 9.22a.815.815 0 0 1-.832-.825.83.83 0 0 1 1.14-.78.83.83 0 0 1 .514.768.816.816 0 0 1-.822.836M11.989 5.14a.61.61 0 0 1-.639.612.62.62 0 0 1-.605-.647.626.626 0 0 1 1.073-.414.62.62 0 0 1 .172.45m4.329 13.127a.61.61 0 0 1-.614-.62.62.62 0 0 1 .637-.62.615.615 0 0 1 .613.623c0 .354-.276.62-.636.617m-3.21 1.232a.573.573 0 0 1-.588-.591.586.586 0 0 1 .597-.589.6.6 0 0 1 .593.597.584.584 0 0 1-.602.583m1.97-13.292a.532.532 0 0 1 .007-1.065.544.544 0 0 1 .531.535.544.544 0 0 1-.537.53m-4.903 12.211a.457.457 0 0 1-.472.458.456.456 0 0 1-.454-.475.465.465 0 0 1 .65-.42.46.46 0 0 1 .276.437m7.997-10.484a.397.397 0 0 1-.675.303.404.404 0 0 1 .266-.694.394.394 0 0 1 .41.392z" clip-rule="evenodd"/><path fill="#00a5ff" fill-rule="evenodd" d="M13.559 9.43q-.006 1.005-.008 2.008c0 1.113-.002 2.226.003 3.34 0 .134-.037.215-.155.286-.458.275-.908.563-1.39.865v-.244c0-1.723-.003-3.446.002-5.169.001-.143-.037-.224-.166-.294-.402-.217-.794-.451-1.19-.678-.043-.025-.09-.045-.156-.078v.236c0 1.544-.004 3.089.004 4.632 0 .155-.05.236-.18.31-.394.217-.778.45-1.168.676-.054.031-.112.059-.2.105v-.24c0-1.551-.003-3.102.006-4.652 0-.18-.06-.27-.21-.353-.438-.245-.868-.504-1.323-.77.504-.29.989-.572 1.478-.843.045-.025.139.007.195.04q.641.358 1.273.732c.102.06.176.067.283.002.388-.238.79-.456 1.177-.698.14-.087.24-.073.373.007.448.268.903.525 1.356.785zm.004.005c.033-.034.061-.079.101-.102.422-.246.845-.493 1.274-.726a.32.32 0 0 1 .264.003q.654.352 1.292.734c.058.034.117.126.117.191q.009 2.433.003 4.868c0 .052-.014.134-.049.155-.486.29-.977.571-1.498.873v-.247c0-1.563-.002-3.126.003-4.688 0-.133-.032-.213-.156-.282-.456-.253-.905-.521-1.355-.784zm-8.36 4.656a1.065 1.065 0 0 1-1.08-1.06 1.064 1.064 0 0 1 1.066-1.075 1.063 1.063 0 0 1 1.078 1.06 1.06 1.06 0 0 1-1.064 1.075m1.436 3.215a1.01 1.01 0 0 1-1.02-.998 1.02 1.02 0 0 1 .999-1.023c.544-.012 1.014.45 1.02 1.003a1.01 1.01 0 0 1-.999 1.018m-.815-8.757c.54.001.973.435.973.971a.977.977 0 0 1-1.674.686.96.96 0 0 1-.272-.692.956.956 0 0 1 .973-.965m13.141 3.68a.912.912 0 1 1 0-1.824.912.912 0 0 1 0 1.823M7.155 6.461a.82.82 0 0 1 .829-.83.826.826 0 0 1 .826.837.827.827 0 0 1-.832.83.82.82 0 0 1-.823-.837m11.32 9.22a.82.82 0 0 1-.832-.824.83.83 0 0 1 1.14-.78.83.83 0 0 1 .514.768.817.817 0 0 1-.822.836m-6.486-10.54a.61.61 0 0 1-.639.611.617.617 0 0 1-.605-.646.625.625 0 0 1 1.072-.415.62.62 0 0 1 .172.45m4.328 13.126a.61.61 0 0 1-.613-.62.616.616 0 0 1 .637-.62.615.615 0 0 1 .613.623c0 .354-.276.62-.637.617m-3.21 1.233a.574.574 0 0 1-.587-.591.59.59 0 0 1 .596-.59.6.6 0 0 1 .547.825.58.58 0 0 1-.556.356m1.971-13.293a.532.532 0 1 1 .006-1.065.543.543 0 0 1 .532.536.544.544 0 0 1-.538.53M10.174 18.42a.46.46 0 0 1-.473.457.456.456 0 0 1-.453-.475.466.466 0 0 1 .649-.419.46.46 0 0 1 .277.437M18.17 7.935a.4.4 0 1 1-.8.021.396.396 0 0 1 .39-.412.394.394 0 0 1 .41.391" clip-rule="evenodd"/></svg>
